X:175
T:Maurice O'Keeffe's
R:polka
M:2/4
L:1/8
K:Gmaj
d|:dBGB|d3e|dBGB|A2A2|edBd|dgge|dBAB|G2G2:|
|:bage|dgg2|bagb|a2a2|bage|dgge|dBAB|G2G2:|

